T: Cherry Blossom, The
M: 2/4
L: 1/8
K: Dmaj
DF FE/D/ | GB B>c | dA dA | e/d/c/B/ A/G/F/E/ |DF FE/D/ | GB B>c | dA c/d/e/c/ | df d :|
